tools/download-figma-icons/icons/outlined-medium/speechbubble.svg

<svg width="24" height="24" viewBox="0 0 24 24" fill="none" xmlns="http://www.w3.org/2000/svg">
<path fill-rule="evenodd" clip-rule="evenodd" d="M22.5 13.3108C22.5 13.7105 22.1745 14.036 21.7747 14.036H18.5782C18.231 14.036 17.928 14.276 17.8485 14.615L17.1015 17.7965L13.9402 14.2843C13.7977 14.126 13.5952 14.036 13.383 14.036H6.56998C6.17023 14.036 5.84398 13.7105 5.84398 13.3108V3.72576C5.84398 3.32601 6.17023 2.99976 6.56998 2.99976H21.7747C22.1745 2.99976 22.5 3.32601 22.5 3.72576V13.3108ZM11.163 18.3688C11.163 18.4633 11.0857 18.5405 10.9913 18.5405H6.9405C6.72825 18.5405 6.52575 18.6305 6.384 18.788L4.7685 20.5775L4.449 19.1285C4.3725 18.785 4.068 18.5405 3.71625 18.5405H1.6785C1.584 18.5405 1.5075 18.4633 1.5075 18.3688L1.5 12.4805C1.5 12.3853 1.57725 12.308 1.67175 12.308H4.344V13.3108C4.344 14.5378 5.34225 15.536 6.57 15.536H11.163V18.3688ZM21.7747 1.49976H6.57C5.34225 1.49976 4.344 2.49801 4.344 3.72576V10.808H1.67175C0.75 10.808 0 11.5588 0 12.482L0.0075 18.371C0.009 19.2913 0.759 20.0405 1.6785 20.0405H3.11325L3.61725 22.322C3.678 22.5965 3.88725 22.814 4.158 22.886C4.22175 22.9025 4.28625 22.9108 4.35 22.9108C4.55925 22.9108 4.7625 22.823 4.9065 22.6633L7.2735 20.0405H10.9913C11.913 20.0405 12.663 19.2905 12.663 18.3688V15.536H13.0485L16.9462 19.8658C17.0903 20.0263 17.2942 20.114 17.5035 20.114C17.5658 20.114 17.628 20.1065 17.6895 20.0908C17.9603 20.021 18.1702 19.8073 18.234 19.5358L19.1722 15.536H21.7747C23.0018 15.536 24 14.5378 24 13.3108V3.72576C24 2.49801 23.0018 1.49976 21.7747 1.49976ZM8.31666 7.40893H15.2174C15.6322 7.40893 15.9674 7.07293 15.9674 6.65893C15.9674 6.24493 15.6322 5.90893 15.2174 5.90893H8.31666C7.90192 5.90893 7.56667 6.24493 7.56667 6.65893C7.56667 7.07293 7.90192 7.40893 8.31666 7.40893ZM8.31684 9.41024H20.0273C20.4421 9.41024 20.7773 9.74624 20.7773 10.1602C20.7773 10.5742 20.4421 10.9102 20.0273 10.9102H8.31684C7.90208 10.9102 7.56683 10.5742 7.56683 10.1602C7.56683 9.74624 7.90208 9.41024 8.31684 9.41024Z" fill="black"/>
</svg>

<svg width="24" height="24" viewBox="0 0 24 24" fill="none" xmlns="http://www.w3.org/2000/svg"><path fill-rule="evenodd" clip-rule="evenodd" d="M22.5 13.31c0 .4-.326.726-.725.726h-3.197a.75.75 0 0 0-.73.579l-.746 3.182-3.162-3.513a.75.75 0 0 0-.557-.248H6.57a.727.727 0 0 1-.726-.725V3.726c0-.4.326-.726.726-.726h15.205c.4 0 .725.326.725.726v9.585Zm-11.337 5.06a.172.172 0 0 1-.172.172h-4.05a.749.749 0 0 0-.557.247l-1.615 1.79-.32-1.45a.751.751 0 0 0-.733-.587H1.678a.172.172 0 0 1-.17-.172L1.5 12.48c0-.095.077-.172.172-.172h2.672v1.003c0 1.227.998 2.225 2.226 2.225h4.593v2.833ZM21.775 1.5H6.57a2.228 2.228 0 0 0-2.226 2.227v7.082H1.672c-.922 0-1.672.75-1.672 1.674l.007 5.889c.002.92.752 1.67 1.671 1.67h1.435l.504 2.281a.752.752 0 0 0 .733.589.75.75 0 0 0 .557-.248l2.367-2.622h3.717c.922 0 1.672-.75 1.672-1.672v-2.833h.386l3.897 4.33a.749.749 0 0 0 1.288-.33l.938-4h2.603A2.228 2.228 0 0 0 24 13.311V3.726A2.228 2.228 0 0 0 21.775 1.5ZM8.317 7.41h6.9a.75.75 0 1 0 0-1.5h-6.9a.75.75 0 1 0 0 1.5Zm0 2.001h11.71a.75.75 0 1 1 0 1.5H8.317a.75.75 0 1 1 0-1.5Z" fill="currentColor"/></svg>
